svg/meter_electric_outline.svg

<svg xmlns="http://www.w3.org/2000/svg" viewBox="0 0 24 24"><path d="M21 11a9 9 0 0 0-18 0c0 3.92 2.5 7.24 6 8.5V22h2v-2.06c.33.06.66.06 1 .06s.67 0 1-.06V22h2v-2.5c3.5-1.26 6-4.58 6-8.5m-9 7c-3.86 0-7-3.14-7-7s3.14-7 7-7 7 3.14 7 7-3.14 7-7 7M8 7h8v2H8zm4.75 3-3 3L11 14.25 9.75 15.5l1.5 1.5 3-3L13 12.75l1.25-1.25z"/></svg>

<svg xmlns="http://www.w3.org/2000/svg" id="mdi-meter-electric-outline" viewBox="0 0 24 24"><path d="M21 11C21 6.03 16.97 2 12 2S3 6.03 3 11C3 14.92 5.5 18.24 9 19.5V22H11V19.94C11.33 20 11.66 20 12 20S12.67 20 13 19.94V22H15V19.5C18.5 18.24 21 14.92 21 11M12 18C8.14 18 5 14.86 5 11S8.14 4 12 4 19 7.14 19 11 15.86 18 12 18M8 7H16V9H8V7M12.75 10L9.75 13L11 14.25L9.75 15.5L11.25 17L14.25 14L13 12.75L14.25 11.5L12.75 10Z" /></svg>
